icons/dart_generated.svg

<svg xmlns="http://www.w3.org/2000/svg" viewBox="0 0 32 32">
  <g>
    <path d="M16.82983,2a1.31377,1.31377,0,0,0-.91579.377l-.01343.00939L7.32282,7.34023,15.87913,15.89v.00536l10.28315,10.2766,1.96049-3.52885L21.05428,5.68315,17.755,2.38643A1.30569,1.30569,0,0,0,16.82849,2Z" style="fill: #90a4ae"/>
    <path d="M7.343,7.32011,2.388,15.88461l-.0094.01342A1.29677,1.29677,0,0,0,2.382,17.733l.00468.00464L6.493,21.84474l16.0639,6.31436,3.63227-2.01534-.098-.098-.02551.00269-10.071-10.07936h-.01208L7.343,7.31877Z" style="fill: #455a64"/>
    <path d="M7.32147,7.32413l8.75237,8.755h.01342L26.1596,26.15584l3.835-.72992L30,14.08932,25.95146,10.1244a6.52432,6.52432,0,0,0-3.61884-1.6128l.00269-.04294L7.32282,7.32547Z" style="fill: #455a64"/>
    <path d="M7.33222,7.33487l8.75773,8.751V16.098l10.079,10.0713L25.43583,30H14.09052L10.1239,25.95189a6.50676,6.50676,0,0,1-1.61136-3.61741l-.04432.004Z" style="fill: #90a4ae"/>
  </g>
</svg>

<svg xmlns="http://www.w3.org/2000/svg" viewBox="0 0 32 32"><path fill="#90a4ae" d="M16.83 2a1.314 1.314 0 0 0-.916.377l-.013.01L7.323 7.34l8.556 8.55v.005l10.283 10.277 1.96-3.529-7.068-16.96-3.299-3.297A1.306 1.306 0 0 0 16.828 2Z"/><path fill="#455a64" d="m7.343 7.32-4.955 8.565-.01.013a1.297 1.297 0 0 0 .004 1.835l.005.005 4.106 4.107 16.064 6.314 3.632-2.015-.098-.098-.025.002L15.995 15.97h-.012l-8.64-8.65Z"/><path fill="#455a64" d="m7.321 7.324 8.753 8.755h.013L26.16 26.156l3.835-.73L30 14.089l-4.049-3.965a6.524 6.524 0 0 0-3.618-1.612l.002-.043L7.323 7.325Z"/><path fill="#90a4ae" d="m7.332 7.335 8.758 8.75v.013l10.079 10.071L25.436 30H14.09l-3.967-4.048a6.507 6.507 0 0 1-1.611-3.618l-.045.004Z"/></svg>
